X:1
T:Songs My Mother Taught Me
T:Als die alte Mutter
T:Anton Dvořák Op. 55, No. 4  
T:Adp. from 1932 edition of Robbins Mammoth Collection of World Famous Songs Arranger uncredited
%%score ( 1 2 ) { ( 3 5 ) | ( 4 6 ) }
L:1/8
Q:1/4=48
M:2/4
K:C
V:1 treble-8 nm="Tenor"
V:2 treble-8 
V:3 treble nm="Piano"
V:5 treble 
V:4 bass 
V:6 bass 
V:1
"^Largo" z4 | z4 | z4 | z4 | z4 | z4 | z4 | z4 ||!pp! c2 BA | c2 BA | c f2 F | F4 | B2 AG | B2 AG | %14
w: ||||||||Songs my _|Moth- er _|taught _ _|me|in the _|days long _|
w: ||||||||||||||
 B e2 E | E3 z |!p!!<(! A2 A2 | Bc de!<)! |!mf! =f3!mp! B | B4 |!p! c3 c | B2 A!mp!d |!>(! e4!>)! | %23
w: va- * ni-|shed,|Sel- dom|from _ her _|eye- *|lids|were the|tear- drops _|ban-|
w: |||||||||
!p! e3 z | z4 | z4 | z4 | z4 |!pp! c2 BA | c2 BA | (3c/d/e/ f2 F | F4 | B2 AG | B2 AG | %34
w: ish'd.|||||Now I _|teach my _|child- * * * *|dren|each me- *|lo- dious _|
w: |||||||||||
 (3B/c/!p!d/ e2 E | E3 z |!p! A2!<(! A2 | Bc de!<)! |!mf!!>(! f4 | e2 d3/2 z/!>)! |!mp! ^c3 c | %41
w: meas- * * * *|ure;|Oft the|tears _ are _|flow-|* ing,|oft they|
w: |||||||
 e2 d=c | B2 B2 |!>(! d[Q:1/4=42]"^ritard"B AF!>)! |[Q:1/4=48]"^a tempo"!pp! G4 | G3 z | z4 | %47
w: flow _ _|from my|mem _ _ _||||
w: ||* * ry's _|treas-|ure.||
[Q:1/4=44]"^ritard" z4 | z4 |[Q:1/4=38] !fermata!z4[Q:1/4=20] |] %50
w: |||
w: |||
V:2
 x4 | x4 | x4 | x4 | x4 | x4 | x4 | x4 || x4 | x4 | x4 | x4 | x4 | x4 | x4 | x4 | x4 | x4 | x4 | %19
 x4 | x4 | x4 | x4 | x4 | x4 | x4 | x4 | x4 | x4 | x4 | x4 | x4 | x4 | x4 | x4 | x4 | x4 | x4 | %38
 x4 | x4 | x4 | x4 | x4 | x7/2 E/4F/4 | x4 | x4 | x4 | x4 | x4 | x4 |] %50
V:3
!mf!!ped! c2!ped-up!!>(!{/Bc} B>A |!ped! c2!ped-up!{/Bc} B>A |!ped! B2!ped-up!{/AB} A>G | %3
!ped! B2!ped-up!{/AB} A>G |!ped! A2!ped-up!{/GA} G>F!>)! |!pp! E4-!ped!!ped-up! | %6
!pp! E4-!ped!!ped-up! | E4!ped!!ped-up! || z2!ped! z z!ped-up! | z2!ped! z z!ped-up! | %10
 z!ped! F2 z!ped-up! | F4!ped!!ped-up! | z2!ped! z z!ped-up! | z2!ped! z z!ped-up! | %14
 z!ped! E2 z!ped-up! |!ped! E4!ped-up! |!p! z2!ped! z2!ped-up! | z!ped! A Bc!ped-up! | %18
!>(! [=FB]3!ped! B!ped-up! | B4!ped!!>)!!ped-up! | c3!ped! c!ped-up! | %21
 B2!ped!!mp!!<(!!<(! cd!<)!!<)!!ped-up! |!ped! !arpeggio![EGce]2!ped-up!{/de} d>c | %23
!p!!ped! [EGce]2!ped-up!!mp!{/de} d>c |!ped! c2!ped-up!!ped! B>!ped-up!!p!A | %25
!ped! c2!ped-up!{/AB} c2 |!p! E4-!ped!!ped-up! |!pp! E4!ped!!ped-up! | z!ped! [EG]2 [EG]!ped-up! | %29
 z!ped! [EA]2 [CEA]!ped-up! |!ped! z2{/cfc} c2!ped-up! |!ped! z2!ped-up!{/Bf} [FB]2 | %32
 z!ped! [DF]2 [DF]!ped-up! | z!ped! [DF]2 [DF]!ped-up! |!ped! z2{/BeB} [Be]2!ped-up! | %35
!ped! z2!ped-up!{/Ae} [EA]2 |!p! A2!ped! A2!ped-up! | B!ped![Ac] [Bd][ce]!ped-up! | %38
!mf!!ped!!>(! [FBf]4!ped-up! |!ped! [EBe]2!ped-up!{/dbd-} [db]2!>)! | %40
!mp!!ped! [GA^c]3!ped-up! [G^c] |!ped! [^F=ce]2!ped-up!{/da} d=c | %42
!>(!!ped! [=FB]2!ped-up!{/Bf} [FB]2 | [Fd]!ped![FB] [FA]F!>)!!ped-up! | %44
!pp!!ped! !arpeggio![EGce]2{/de} d!ped-up!c |!ped! !arpeggio![EGce]2{/de} d!ped-up!c | %46
!ped! c2 B!ped-up!A |!ped! c2!ped-up!{/AB} c2 |!ped! [EG]4!ped-up! | !fermata![EG]4!ped!!ped-up! |] %50
V:4
!mp! A,, [E,A,C]2 [E,A,C] | A,, [E,A,C]2 [E,A,C] |!p! F,, [C,F,A,]2 [C,F,A,] | %3
 F,, [C,F,A,]2 [C,F,A,] |!pp! A,, [E,A,C]2 [E,A,C]- | [E,A,C] [E,A,C]2 [E,A,C] | %6
 A,, [E,A,C]2 [E,A,C]- | [E,A,C] [E,A,C]2 [E,A,C] || z [C,G,]3 | z [E,A,]3 | z [A,C]2 [A,C] | %11
 [D,,D,]4 | z [F,G,]3 | z [D,G,]3 | z [E,G,B,]2 [E,G,B,] | [C,,C,]4 | %16
!<(!!8vb(! [=F,,,=F,,]4!8vb)! |!8vb(! [^F,,,^F,,]4!8vb)!!<)! |!mf!!>(! z [F,G,B,]2 [F,G,B,] | %19
 z [F,B,]2!>)!!p! [F,B,] | z [E,A,]2 [E,A,] | z [C,F,A,]2 [C,F,A,] | [C,,C,] [E,G,C]2 [E,G,C] | %23
 C, [E,G,C]2 [E,G,C] | A,,!p! [E,A,C]2 [E,A,C] | F,, [C,F,A,]2 [C,F,A,] | %26
 A,,!pp! [E,A,C]2!>(! [E,A,C]-!>)! | [E,A,C] [E,A,C]2 [E,A,C] | !arpeggio![C,,G,,E,]4 | [A,,E,]4 | %30
 z [D,A,C]2 [D,A,C] | z [F,G,B,]2 [F,G,B,] | [G,,D,]4 | [G,,D,]4 | z [E,G,]2 [E,G,] | %35
 z [E,G,]2 [E,G,] |!8vb(! [F,,,F,,]4!8vb)! |!8vb(! [^F,,,^F,,]4!8vb)! | [G,,,G,,]4 | [^G,,,^G,,]4 | %40
 [A,,,A,,]4 | [D,,D,]4 | z [G,,D,A,]2 [G,,D,A,]- | [G,,D,A,][G,B,] [G,C][G,D] | %44
 [C,,C,] [E,G,C]2 [E,G,C] | [C,,C,] [E,G,C]2 [E,G,C] | A,, [E,A,C]2 [E,A,C] | %47
 F,, [C,F,A,]2 [C,F,A,] | [C,,,C,,] [G,,C,E,G,]2 [G,,C,E,G,]- | %49
 [G,,C,E,G,] [G,,C,E,G,]2 !fermata![G,,C,E,G,] |] %50
V:5
 x4 | x4 | x4 | x4 | x4 | x4 | x4 | x4 || z [CE]2 [CE] | z [CE]2 [CE] | x4 | z [G,B,]2 [G,B,] | %12
 z [B,D]2 [B,D] | z [B,F]2 [B,F] | x4 | z B,{/A,B,}A,G, | z [A,CE]2 [A,CE] | x4 | x4 | %19
 z [DF]2 [DF] | z [CE]2 [CE] | z [Cc]2 D | x4 | x4 | x2{/Bc-} c2 | B2 A3/2G/4F/4 | x4 | x4 | %28
 C2 B,A, | C2 B,A, | (3C/D/E/ F3 | x4 | !2!B,2 !2!A,!1!G, | !2!B,2 !2!A,!1!G, | (3B,/C/!p!D/ E3 | %35
 x4 | x!<(! [A,CE]2 [A,CE] | x4!<)! | z2{/fbf-} [fb]2 | x4 | z2{/g^c'g-} [g^c'] z | x4 | x4 | x4 | %44
 x4 | x4 | x2{/Bc-} c2 | B2 A3/2!p!G/4F/4 | x7/2!p! G/4E/4 | x4 |] %50
V:6
 x4 | x4 | x4 | x4 | x4 | x4 | x4 | x4 || C,,4 | A,,,4 | [D,,D,]4 | x4 | G,,4 | [G,,,G,,]4 | %14
 [C,,C,]4 | z E, x2 |!8vb(! x4!8vb)! |!8vb(! z!8vb)! [CE][D,B,D][D,A,C] | G,,4 | ^G,,4 | A,,4 | %21
 F,,4 | x4 | x4 | x4 | x4 | x4 | x4 | x4 | x4 | [D,,D,]4 | !arpeggio![G,,F,]4 | x4 | x4 | %34
 !arpeggio![C,,G,,E,]4 | !arpeggio![C,,G,,E,]4 |!8vb(! x4!8vb)! | %37
!8vb(! z!8vb)! [CE][D,B,D][D,A,C] | z [D,G,D]2 [D,G,D] | z [E,B,D]2 [E,B,D] | %40
 z [G,A,^C]2 [G,A,^C] | z [D,^F,=C]2 [D,F,C] | [G,,,G,,]4 | x4 | x4 | x4 | x4 | x4 | x4 | x4 |] %50

